dist/svg/database-o.svg

<svg width="16" height="16" viewBox="0 0 16 16" fill="rgb(34, 34, 34)" xmlns="http://www.w3.org/2000/svg"><title>database-o</title><path d="M15 2.496H14.999C14.993 0.18 9.64099 0 7.99899 0C6.35699 0 1.00599 0.18 0.998993 2.496V13.501C1.00199 15.819 6.35699 15.999 7.99899 15.999C9.64099 15.999 14.993 15.819 14.999 13.502H15V2.495V2.496ZM7.99899 1C11.313 1 13.999 1.672 13.999 2.5C13.999 3.328 11.313 4 7.99899 4C4.68499 4 1.99899 3.328 1.99899 2.5C1.99899 1.672 4.68499 1 7.99899 1ZM1.99899 3.945C3.62799 4.9 6.79999 5 7.99899 5C9.19799 5 12.371 4.9 14 3.945V6H13.999C13.999 6.828 11.313 7.5 7.99899 7.5C4.68499 7.5 1.99899 6.828 1.99899 6V3.945ZM1.99899 7.445C3.62799 8.4 6.79999 8.5 7.99899 8.5C9.19799 8.5 12.371 8.4 14 7.445V10H13.999C13.999 10.828 11.313 11.5 7.99899 11.5C4.68499 11.5 1.99899 10.828 1.99899 10V7.445ZM7.99899 15C4.68499 15 1.99899 14.328 1.99899 13.5V11.445C3.62799 12.4 6.79999 12.5 7.99899 12.5C9.19799 12.5 12.371 12.4 14 11.445V13.5H13.999C13.999 14.328 11.313 15 7.99899 15Z" fill="rgb(34, 34, 34)" fill-opacity="1.00"/></svg>

<!-- Generated by Trend Micro Style Portal -->
<svg version="1.1" xmlns="http://www.w3.org/2000/svg" width="16" height="16" viewBox="0 0 16 16">
  <title>database-o</title>
  <path fill="rgb(34,34,34)" d="M15 2.496h-0.001c-0.006-2.316-5.358-2.496-7-2.496s-6.993 0.18-7 2.496h-0v11.005h0c0.003 2.318 5.358 2.498 7 2.498s6.994-0.18 7-2.497h0.001v-11.007zM7.999 1c3.314 0 6 0.672 6 1.5s-2.686 1.5-6 1.5-6-0.672-6-1.5 2.686-1.5 6-1.5zM1.999 3.945c1.629 0.955 4.801 1.055 6 1.055s4.372-0.1 6.001-1.055v2.055h-0.001c0 0.828-2.686 1.5-6 1.5s-6-0.672-6-1.5v-2.055zM1.999 7.445c1.629 0.955 4.801 1.055 6 1.055s4.372-0.1 6.001-1.055v2.555h-0.001c0 0.828-2.686 1.5-6 1.5s-6-0.672-6-1.5v-2.555zM7.999 15c-3.314 0-6-0.672-6-1.5v-2.055c1.629 0.955 4.801 1.055 6 1.055s4.372-0.1 6.001-1.055v2.055h-0.001c0 0.828-2.686 1.5-6 1.5z"></path>
</svg>
